public/assets/techs/django.svg

<svg width="20" height="20" viewBox="0 0 20 20" fill="none" xmlns="http://www.w3.org/2000/svg">
<path d="M8.83439 2.5H11.3125V13.8556C10.2547 14.0727 9.178 14.1847 8.09814 14.19C5.07189 14.1869 3.49689 12.835 3.49689 10.2387C3.49689 7.73875 5.16751 6.11375 7.75689 6.11375C8.12005 6.10667 8.4825 6.14872 8.83439 6.23875V2.5V2.5ZM8.83439 8.21375C8.56498 8.12488 8.28239 8.08261 7.99876 8.08875C6.74876 8.08875 6.02189 8.85313 6.02189 10.1925C6.02189 11.4969 6.71376 12.2169 7.98314 12.2169C8.26803 12.2168 8.55254 12.1959 8.83439 12.1544V8.21688V8.21375Z" fill="#EEEEEE"/>
<path d="M15.25 6.28688V11.9744C15.25 13.9325 15.1031 14.8738 14.6731 15.6856C14.2343 16.5111 13.5167 17.1541 12.6481 17.5L10.3494 16.4169C11.1845 16.1309 11.8839 15.5455 12.3125 14.7738C12.6662 14.0731 12.7781 13.2613 12.7781 11.1256V6.28688H15.25Z" fill="#EEEEEE"/>
<path d="M15.2531 2.5125H12.7756V5.03H15.2531V2.5125Z" fill="#EEEEEE"/>
</svg>

<svg xmlns="http://www.w3.org/2000/svg" width="20" height="20" fill="#44b78b" xmlns:v="https://vecta.io/nano"><path d="M8.834 2.5h2.478v11.356a16.39 16.39 0 0 1-3.214.334c-3.026-.003-4.601-1.355-4.601-3.951 0-2.5 1.671-4.125 4.26-4.125a4.03 4.03 0 0 1 1.078.125V2.5zm0 5.714c-.269-.089-.552-.131-.836-.125-1.25 0-1.977.764-1.977 2.104 0 1.304.692 2.024 1.961 2.024a5.86 5.86 0 0 0 .851-.062V8.217v-.003zm6.416-1.927v5.688c0 1.958-.147 2.899-.577 3.711a3.95 3.95 0 0 1-2.025 1.814l-2.299-1.083a3.57 3.57 0 0 0 1.963-1.643c.354-.701.466-1.512.466-3.648V6.287h2.472zm.003-3.774h-2.477V5.03h2.477V2.513z"/></svg>
